X: 1350
T: the Sporting Boys   #2
R: reel
%S: s:2 b:11(6+5)
B: O'Neill's 1850 #1350
O: O'Reilly
Z: Trish O'Neil
N: Compacted via repeats and multiple endings [JC]
M: C|
L: 1/8
K: G
"^A"|: (BA) | G2(BG) AcBA | G2(BG) GEDE |[1 G2(BG) ABce | dBgB c2 :|[2 DEGB cBAe | dBgB c2 |]
"^B"|: BA | Bdgd edgd | Bdgd e2dc | Bdgd [1 edef | gedB c2 :|[2 egfa | gedB c2 |]
